editor/icons/icon_issue.svg

<svg height="16" viewBox="0 0 16 16" width="16" xmlns="http://www.w3.org/2000/svg"><g fill="#e0e0e0"><path d="m5.2902433 14.98657h1.9512087v2.441414h-1.9512087zm0-11.909101h1.9512087v6.2957719l-.1922373 3.4314361h-1.5571222l-.2018492-3.4314361z" transform="matrix(1.2172834 0 0 .60107067 .478728 1.839214)"/><path d="m8.0503291 1.1522775a6.8983747 6.8983747 0 0 0 -6.8980516 6.8980516 6.8983747 6.8983747 0 0 0 6.8980516 6.8997839 6.8983747 6.8983747 0 0 0 6.8997839-6.8997839 6.8983747 6.8983747 0 0 0 -6.8997839-6.8980516zm-.0294418 1.1430364a5.6659852 5.6659852 0 0 1 5.6666897 5.6649578 5.6659852 5.6659852 0 0 1 -5.6666897 5.6666893 5.6659852 5.6659852 0 0 1 -5.6666896-5.6666893 5.6659852 5.6659852 0 0 1 5.6666896-5.6649578z" stroke-width=".886719"/></g></svg>

<?xml version="1.0" encoding="UTF-8" standalone="no"?>
<svg
   xmlns:dc="http://purl.org/dc/elements/1.1/"
   xmlns:cc="http://creativecommons.org/ns#"
   xmlns:rdf="http://www.w3.org/1999/02/22-rdf-syntax-ns#"
   xmlns:svg="http://www.w3.org/2000/svg"
   xmlns="http://www.w3.org/2000/svg"
   xmlns:sodipodi="http://sodipodi.sourceforge.net/DTD/sodipodi-0.dtd"
   xmlns:inkscape="http://www.inkscape.org/namespaces/inkscape"
   width="16"
   height="16"
   version="1.1"
   viewBox="0 0 16 16"
   id="svg6"
   sodipodi:docname="icon_issue.svg"
   inkscape:version="0.92.3 (2405546, 2018-03-11)">
  <metadata
     id="metadata12">
    <rdf:RDF>
      <cc:Work
         rdf:about="">
        <dc:format>image/svg+xml</dc:format>
        <dc:type
           rdf:resource="http://purl.org/dc/dcmitype/StillImage" />
        <dc:title />
      </cc:Work>
    </rdf:RDF>
  </metadata>
  <defs
     id="defs10" />
  <sodipodi:namedview
     pagecolor="#ffffff"
     bordercolor="#666666"
     borderopacity="1"
     objecttolerance="10"
     gridtolerance="10"
     guidetolerance="10"
     inkscape:pageopacity="0"
     inkscape:pageshadow="2"
     inkscape:window-width="2242"
     inkscape:window-height="1224"
     id="namedview8"
     showgrid="false"
     inkscape:zoom="29.5"
     inkscape:cx="0.93716338"
     inkscape:cy="15.746557"
     inkscape:window-x="134"
     inkscape:window-y="55"
     inkscape:window-maximized="0"
     inkscape:current-layer="svg6" />
  <g
     transform="translate(0 -1036.4)"
     id="g4" />
  <g
     aria-label="!"
     transform="matrix(1.2172834,0,0,0.60107067,0.478728,1.8392137)"
     style="font-style:normal;font-weight:normal;font-size:19.68510056px;line-height:1.25;font-family:sans-serif;letter-spacing:0px;word-spacing:0px;fill:#e0e0e0;fill-opacity:1;stroke:none;stroke-width:0.92273909"
     id="text3719">
    <path
       d="M 5.2902433,14.98657 H 7.241452 v 2.441414 H 5.2902433 Z m 0,-11.909101 H 7.241452 V 9.3732409 L 7.0492147,12.804677 H 5.4920925 L 5.2902433,9.3732409 Z"
       style="fill:#e0e0e0;fill-opacity:1;stroke-width:0.92273909"
       id="path10"
       inkscape:connector-curvature="0" />
  </g>
  <path
     style="fill:#e0e0e0;fill-opacity:1;stroke-width:0.88671917"
     d="M 8.0503291,1.1522775 A 6.8983747,6.8983747 0 0 0 1.1522775,8.0503291 6.8983747,6.8983747 0 0 0 8.0503291,14.950113 6.8983747,6.8983747 0 0 0 14.950113,8.0503291 6.8983747,6.8983747 0 0 0 8.0503291,1.1522775 Z M 8.0208873,2.2953139 A 5.6659852,5.6659852 0 0 1 13.687577,7.9602717 5.6659852,5.6659852 0 0 1 8.0208873,13.626961 5.6659852,5.6659852 0 0 1 2.3541977,7.9602717 5.6659852,5.6659852 0 0 1 8.0208873,2.2953139 Z"
     id="path4526"
     inkscape:connector-curvature="0" />
</svg>
